X: 43541
T: You Think I Am, But I'm Not
R: reel
M: 4/4
K: Dmajor
|:defa ~g3e|faeg fdBd|AF~F2 ABde|fdaf efge|
agfa ~g3e|faeg fdBd|ABAF DEFG|1 ABcA dABc:|2 Ad=cd A2AB||
K: Dmix
|:cBcd efga|fdad bdaB|cBcd egag|efdB A2AB|
~c3d egfe|d^cdA (3B^cd AF|D2DE FEFG|1 AdcA G2AB:|2 AdcA GAB^c||

